X: 197
T: Shi Duihua
L: 1/8
M: 2/4
K: G
B d B d [I:setbarnb 1]| 
g e/ g/d2 | 
B GA2 | 
g e/ g/d2 | 
B GA2 | 
A2d2 | 
d2G2 | 
A dG2 | 
G B A G | 
G DG2 |]

@@@ Tune index: 9071
